X: 642
T: Elmas Senin Yüzün Gören
C: Tanburî Mustafa Çavuş
O: Turkey
F: http://compmusic.upf.edu/node/140
N: nikriz--sarki--aksak--elmas_senin--tanburi_mustafa_cavus
N: makam= nikriz
N: form= sarki
N: usul= aksak = 9/8
M: 9/8
L: 1/16
K: C _7/8B ^3/4f ^c 
Q: 1/4=174
%%MIDI tuningsystem comma53
G3g fge=f dfed edcB AG | FG ABcd e=fed dcd6  | 
w:  ARANAĞME  |   | 
cde^2/4f g2^1/4fe eddc dcBA G2 | ^FG ABdc BAAG GFG3dce  | 
w:   |   | 
G3g fge=f dfed edcB AG | FG ABcd e=fed dcd6  | 
w:  ARANAĞME  |   | 
cde^2/4f g2^1/4fe eddc dcBA G2 | ^FG ABdc BAAG GFG3dce  | 
w:   |   | 
d4 G2d2 d2{e}dc d6 | e4g2 =feed dcdc BAGF  | 
w:  *  El mas  se *  *  *  nin   |  yü zün  *  *  gö *  *  *  ren    | 
G2z2 G2d2 d2{e}dc d6 | e4g2 =feed dcd4ce  | \
w:  *  El mas  se *  *  *  nin   |  yü zün  *  *  gö *  *  *  ren   SAZ  | 
d2z2 d3d d4 dcBA B2 | 
w:  *  Ay rı lır  mı   | 
c2 BAe2 dccB BAB4AG  | G2z2 c2d2 e2f2 g6 | \
w:  kad *  *  rin  *  *  bi *  *  *  len    |  *  El ma sım *  dan   | 
g3^2/4f^1/4f2 {g}fee=f efag fedc  | 
w:  men *  dil  *  *  *  al *  *  *  dım    | 
d2z2 c2d2 e2f2 g6 | g3^2/4f^1/4f2 {g}fee=f efag fedc  | 
w:  *  El ma sım *  dan   |  men *  dil  *  *  *  al *  *  *  dım    | 
d2z2 edcd e4 e2e4 | e^2/4f efg2 {b}ag^1/4fe d2e2 =f2ed  | 
w:  *  Mec *  *  *  nûn  o lur   |  gö *  *  *  nül  *  *  *  ve *  *  ren   *  a  | 
c2d4e^f eddc d4 dc | cB BAd2 d2dc BAdc BAG^F  | 
w:  man  *  a *  man  *  a *  man   |  *  *  *  *  Ha lim  pek  *  *  *  ya  | 
G3g fge=f dfed edcB AG | FG ABcd e=fed dcd6  | 
w:  ARANAĞME  |   | 
cde^2/4f g2^1/4fe eddc dcBA G2 | ^FG ABdc BAAG GFG3dce  | 
w:   |   | 
G3g fge=f dfed edcB AG | FG ABcd e=fed dcd6  | 
w:  ARANAĞME  |   | 
cde^2/4f g2^1/4fe eddc dcBA G2 | ^FG ABdc BAAG GFG3dce  | 
w:   |   | 
d4 G2d2 d2{e}dc d6 | e4g2 =feed dcdc BAGF  | 
w:  *  El mas  se *  *  *  nin   |  yü zün  *  *  gö *  *  *  ren    | 
G2z2 G2d2 d2{e}dc d6 | e4g2 =feed dcd4ce  | \
w:  *  El mas  se *  *  *  nin   |  yü zün  *  *  gö *  *  *  ren   SAZ  | 
d2z2 d3d d4 dcBA B2 | 
w:  *  Ay rı lır  mı   | 
c2 BAe2 dccB BAB4AG  | G2z2 c2d2 e2f2 g6 | \
w:  kad *  *  rin  *  *  bi *  *  *  len    |  *  El ma sım *  dan   | 
g3^2/4f^1/4f2 {g}fee=f efag fedc  | 
w:  men *  dil  *  *  *  al *  *  *  dım    | 
d2z2 c2d2 e2f2 g6 | g3^2/4f^1/4f2 {g}fee=f efag fedc  | 
w:  *  El ma sım *  dan   |  men *  dil  *  *  *  al *  *  *  dım    | 
d2z2 edcd e4 e2e4 | e^2/4f efg2 {b}ag^1/4fe d2e2 =f2ed  | 
w:  *  Mec *  *  *  nûn  o lur   |  gö *  *  *  nül  *  *  *  ve *  *  ren   *  a  | 
c2d4e^f eddc d4 dc | cB BAd2 d2dc BAdc BAG^F  | 
w:  man  *  a *  man  *  a *  man   |  *  *  *  *  Ha lim  pek  *  *  *  ya  | 
G16 z2 | |


